src/assets/howItWorks/Mashable.svg

<svg xmlns="http://www.w3.org/2000/svg" width="105" height="18" viewBox="0 0 105 18" fill="none">
<path fill-rule="evenodd" clip-rule="evenodd" d="M87.0352 0H91.1116V17.6562H87.0352V0ZM15.4876 5.98079V17.6562H20.042V5.65214e-05H13.7137L10.0355 9.74228L6.32828 5.65214e-05H0V17.6562H4.55433V5.98079L9.02902 17.6562H11.0419L15.4876 5.98079ZM29.0931 16.3873V17.658H33.1695V9.66436C33.1695 5.69289 30.2841 4.55612 27.2141 4.55612C25.2556 4.55612 23.058 5.13536 21.4144 6.54004L22.9241 9.37111C23.9559 8.49862 25.2266 7.9954 26.4973 7.9954C28.1409 7.9954 29.0931 8.7629 29.0931 9.87433V11.1451C28.3256 10.1929 26.8159 9.63539 25.1216 9.63539C23.163 9.63539 20.7266 10.6708 20.7266 13.7662C20.7266 16.6262 23.163 17.9766 25.1216 17.9766C26.7616 17.9766 28.3002 17.3394 29.0931 16.3873ZM29.0931 13.2376V14.3744C28.6695 14.9862 27.7174 15.3012 26.8159 15.3012C25.7588 15.3012 24.7777 14.8269 24.7777 13.8205C24.7777 12.814 25.7588 12.3361 26.8159 12.3361C27.7174 12.3361 28.6695 12.6294 29.0931 13.2376ZM33.4531 15.9887L35.1474 13.078C36.0996 13.9252 38.1378 14.7977 39.6475 14.7977C40.8639 14.7977 41.3671 14.4537 41.3671 13.8962C41.3671 13.3317 40.4245 13.176 39.2106 12.9755C37.0148 12.6128 33.931 12.1035 33.931 8.76262C33.931 6.51079 35.8896 4.55221 39.4085 4.55221C41.5807 4.55221 43.38 5.24007 44.7557 6.24651L43.1953 9.13189C42.4278 8.38973 40.9725 7.73083 39.4375 7.73083C38.4817 7.73083 37.8482 8.1001 37.8482 8.60332C37.8482 9.0808 38.7089 9.22652 39.8436 9.41865C42.0386 9.79028 45.2589 10.3355 45.2589 13.7912C45.2589 16.2277 43.1157 17.9727 39.4628 17.9727C37.1603 17.9727 34.8035 17.2052 33.4531 15.9887ZM54.453 10.2165V17.6562H58.5295V8.5512C58.5295 6.19439 57.2044 4.55439 54.2937 4.55439C52.1505 4.55439 50.6408 5.53187 49.8733 6.43333V5.65214e-05H45.7969V17.6562H49.8733V9.39835C50.3512 8.81548 51.1441 8.15297 52.3351 8.15297C53.6312 8.15297 54.453 8.65619 54.453 10.2165ZM67.472 17.658V16.3873C66.6791 17.3394 65.1405 17.9766 63.5005 17.9766C61.5419 17.9766 59.1055 16.6262 59.1055 13.7662C59.1055 10.6708 61.5419 9.63539 63.5005 9.63539C65.1948 9.63539 66.7045 10.1929 67.472 11.1451V9.87433C67.472 8.7629 66.5198 7.9954 64.8762 7.9954C63.6055 7.9954 62.3348 8.49862 61.303 9.37111L59.7933 6.54004C61.4369 5.13536 63.6345 4.55612 65.593 4.55612C68.6631 4.55612 71.5484 5.69289 71.5484 9.66436V17.658H67.472ZM67.472 14.3744V13.2376C67.0484 12.6294 66.0963 12.3361 65.1948 12.3361C64.1377 12.3361 63.1566 12.814 63.1566 13.8205C63.1566 14.8269 64.1377 15.3012 65.1948 15.3012C66.0963 15.3012 67.0484 14.9862 67.472 14.3744ZM72.9453 0.00178363V17.658H77.0218V16.1773C78.0825 17.3937 79.3786 17.9766 80.8086 17.9766C83.9583 17.9766 86.4454 15.5944 86.4454 11.2537C86.4454 7.0686 84.0126 4.55612 80.8086 4.55612C79.4039 4.55612 78.0282 5.11002 77.0218 6.38075V0.00178363H72.9453ZM82.2893 11.2537C82.2893 13.1833 81.0729 14.3744 79.4582 14.3744C78.5857 14.3744 77.525 13.9254 77.0218 13.2376V9.32043C77.525 8.63257 78.5857 8.15469 79.4582 8.15469C81.0729 8.15469 82.2893 9.34577 82.2893 11.2537ZM98.4608 4.55221C94.464 4.55221 91.6836 7.54258 91.6836 11.2498C91.6836 15.4059 94.7029 17.9727 98.6454 17.9727C100.604 17.9727 102.722 17.4188 103.993 16.2784L102.219 13.6066C101.48 14.2944 99.9958 14.6927 99.0943 14.6927C97.2444 14.6927 96.1836 13.7369 95.894 12.6001H104.999V11.6733C104.999 7.3326 102.248 4.55221 98.4608 4.55221ZM95.8397 9.81974C95.999 8.89295 96.6868 7.83582 98.4608 7.83582C100.34 7.83582 101.002 8.91829 101.107 9.81974H95.8397Z" fill="#ABB0C1"/>
</svg>

<svg xmlns="http://www.w3.org/2000/svg" width="105" height="18" fill="none">
  <path fill="#ABB0C1" fill-rule="evenodd" d="M87.035 0h4.077v17.656h-4.077zM15.488 5.98v11.676h4.554V0h-6.328l-3.678 9.742L6.328 0H0v17.656h4.554V5.981L9.03 17.656h2.013zm13.605 10.407v1.271h4.076V9.664c0-3.971-2.885-5.108-5.955-5.108-1.958 0-4.156.58-5.8 1.984l1.51 2.831c1.032-.872 2.303-1.376 3.573-1.376 1.644 0 2.596.768 2.596 1.88v1.27c-.767-.952-2.277-1.51-3.971-1.51-1.959 0-4.395 1.036-4.395 4.131 0 2.86 2.436 4.21 4.395 4.21 1.64 0 3.178-.637 3.971-1.589m0-3.15v1.137c-.424.612-1.376.927-2.277.927-1.057 0-2.038-.474-2.038-1.48s.98-1.485 2.038-1.485c.901 0 1.854.293 2.277.902m4.36 2.752 1.694-2.911c.953.847 2.99 1.72 4.5 1.72 1.217 0 1.72-.344 1.72-.902 0-.564-.942-.72-2.156-.92-2.196-.363-5.28-.873-5.28-4.213 0-2.252 1.959-4.21 5.477-4.21 2.173 0 3.972.687 5.348 1.694l-1.56 2.885c-.768-.742-2.224-1.401-3.758-1.401-.956 0-1.59.37-1.59.872 0 .478.86.624 1.996.816 2.195.371 5.415.916 5.415 4.372 0 2.437-2.143 4.182-5.796 4.182-2.303 0-4.66-.768-6.01-1.984m21-5.773v7.44h4.076V8.551c0-2.357-1.325-3.997-4.235-3.997-2.143 0-3.653.978-4.42 1.88V0h-4.077v17.656h4.076V9.398c.478-.583 1.271-1.245 2.462-1.245 1.296 0 2.118.503 2.118 2.063m13.019 7.442v-1.27c-.793.951-2.331 1.589-3.971 1.589-1.96 0-4.395-1.35-4.395-4.21 0-3.096 2.436-4.132 4.395-4.132 1.694 0 3.203.558 3.971 1.51v-1.27c0-1.112-.952-1.88-2.596-1.88-1.27 0-2.541.504-3.573 1.376l-1.51-2.831c1.644-1.405 3.842-1.984 5.8-1.984 3.07 0 5.955 1.137 5.955 5.108v7.994zm0-3.284v-1.136c-.424-.609-1.376-.902-2.277-.902-1.057 0-2.038.478-2.038 1.484s.98 1.481 2.038 1.481c.901 0 1.853-.315 2.277-.927M72.945.002v17.656h4.077v-1.48c1.06 1.216 2.357 1.799 3.787 1.799 3.15 0 5.636-2.383 5.636-6.723 0-4.185-2.432-6.698-5.636-6.698-1.405 0-2.78.554-3.787 1.825V0zm9.344 11.252c0 1.93-1.216 3.12-2.83 3.12-.873 0-1.934-.449-2.437-1.136V9.32c.503-.687 1.564-1.165 2.436-1.165 1.615 0 2.831 1.19 2.831 3.099m16.172-6.702c-3.997 0-6.777 2.99-6.777 6.698 0 4.156 3.019 6.723 6.961 6.723 1.959 0 4.077-.554 5.348-1.695l-1.774-2.671c-.739.687-2.223 1.086-3.125 1.086-1.85 0-2.91-.956-3.2-2.093h9.105v-.927c0-4.34-2.751-7.12-6.538-7.12M95.84 9.82c.159-.927.847-1.984 2.62-1.984 1.88 0 2.542 1.082 2.647 1.984z" clip-rule="evenodd"/>
</svg>
